X:638
T:Thomas Leixlip the Proud
C:O'Carolan
B:O'Neill's 638
Z: 1997 by John Chambers <jc@trillian.mit.edu>
N:"Spirited"
M:6/8
L:1/8
K:D
A \
|df/e/d/c/ dAA|Afe fAA|df/e/d/c/ dAF|GAc d2A|
|df/e/d/c/ dAA|Afe fAA|Bc/B/A/G/ AB/A/G/F/|GAc d2 :|
A \
|Add d2f/e/|d/c/ d/e/ f/g/ afd|gfe efdB|AFA HB2c/d/|
|AFF BGG|AFd B/A/ G/F/ E/D/|AFd B/A/ G/F/ E/D/|EFA HB2 c/d/|
|AFF BGG|AFd B/A/ G/F/ E/D/|gfe fdB|ABc d2|]
